X: 27254
T: Miss Sine Flemington
R: barndance
M: 4/4
K: Aminor
A3 G E c3|B3 A G4|A3 G E c3|d e3 A4|
d e3 A3 c|g2 c2 d2 f2|e3 g a3 d|d8||
e3 f ed cd|e2 E2 G4|e3 f ed cd|e2 G2 A4|
e3 f e2 d2|B g3 f4|e3 g a3 d|d8||
e3 g fe dc|e2 E2 G4|e3 g fe dc|e2 G2 A4|
a3 g fe dc|B2 g2 f4|e3 g a3 d|d8|

